X: 13335
T: Flatbush
R: waltz
M: 3/4
K: Gminor
d3edc|B2G2G2|d3gdB|c3edc
Bcdefd|cGc2dc|B3cAB|G6 b4ag
a2d2d2|g2f2e2|d6|e4dc
d2g2a2|b3abc'|a6|d'4c'b
a2d2d2|g2f2e2|d6|e4dc|d2B2G|B3cAB|G6:|
D3EDC|B,2G,2G,2|D3GDB,|C3EDC
B,CDEFD|CG,C2DC|B,3CA,B,|G,6 B4AG
A2D2D2|G2F2E2|D6|E4DC
D2G2A2|B3ABc|A6|d4cB
A2D2D2|G2F2E2|D6|E4DC|
D2B,2G,|B,3CA,B,|G,6:|

